assets/images/script/s-7-e3.svg

<svg fill="none" height="241" viewBox="0 0 192 241" width="192" xmlns="http://www.w3.org/2000/svg"><path d="m131.668 6.86652c1.817 0-3.637-.01437-5.45-.14183-23.071-1.62205-45.8379 2.42464-68.8698.32688-17.8469-1.62551-35.7807-2.66483-53.65158-4.0421-2.832331-.21829 3.83221 3.40466 4.67151 4.0421 39.04057 29.65123 55.88137 76.25113 62.00377 122.35443 3.1009 23.351 4.788 74.384-7.0781 95.949-7.2424 13.163-17.9235 12.263-24.0654-1.347-22.801-50.526 24.4336-122.151 68.2326-139.7032 10.614-4.2535 27.747-11.8716 32.276 3.1911 6.549 21.7861 4.671 47.5801 4.671 69.9921 0 23.917.044 48.491-5.025 71.978-.73 3.384-5.912 13.965-3.044 5.035 9.549-29.724 23.648-61.202 52.661-75.736" stroke="#000" stroke-linecap="round" stroke-width="5"/></svg>

<svg width="192" height="241" viewBox="0 0 192 241" fill="none" xmlns="http://www.w3.org/2000/svg">
<path d="M131.668 6.86652C133.485 6.86652 128.031 6.85215 126.218 6.72469C103.147 5.10264 80.3801 9.14933 57.3482 7.05157C39.5013 5.42606 21.5675 4.38674 3.69662 3.00947C0.864289 2.79118 7.52883 6.41413 8.36813 7.05157C47.4087 36.7028 64.2495 83.3027 70.3719 129.406C73.4728 152.757 75.1599 203.79 63.2938 225.355C56.0514 238.518 45.3703 237.618 39.2284 224.008C16.4274 173.482 63.662 101.857 107.461 84.3048C118.075 80.0513 135.208 72.4332 139.737 87.4959C146.286 109.282 144.408 135.076 144.408 157.488C144.408 181.405 144.452 205.979 139.383 229.466C138.653 232.85 133.471 243.431 136.339 234.501C145.888 204.777 159.987 173.299 189 158.765" stroke="black" stroke-width="5" stroke-linecap="round"/>
</svg>
